X:1
T:Trio
T:Trio
T:Anna Amalia Trio 
T:Anna Amalia  (1739-1807) Arr. by Felix Scharpf 
T:from "Cæcilia collection of organ pieces" ed. C. F. Becker, Leipzig, ca. 1890 Arrangement for Flute, Violin, Cello 
T:twoflutes 2020 / Felix Scharpf / https://commons.wikimedia.org/wiki/File:Anna_Amalia_Kauffmann.jpg
T:twoflutes 2020 / Felix Scharpf / https://commons.wikimedia.org/wiki/File:Anna_Amalia_Kauffmann.jpg
T:twoflutes 2020 / Felix Scharpf / https://commons.wikimedia.org/wiki/File:Anna_Amalia_Kauffmann.jpg
T:twoflutes 2020 / Felix Scharpf / https://commons.wikimedia.org/wiki/File:Anna_Amalia_Kauffmann.jpg
T:twoflutes 2020 / Felix Scharpf / https://commons.wikimedia.org/wiki/File:Anna_Amalia_Kauffmann.jpg
T:twoflutes 2020 / Felix Scharpf / https://commons.wikimedia.org/wiki/File:Anna_Amalia_Kauffmann.jpg
C:Anna Amalia (1739-1808)
Z:twoflutes 2020 / Felix Scharpf / https://commons.wikimedia.org/wiki/File:Anna_Amalia_Kauffmann.jpg
%%score [ 1 2 3 ]
L:1/8
Q:1/4=120
M:4/4
K:D
V:1 treble nm="Flöte" snm="Fl."
V:2 treble nm="Violine" snm="Vl."
V:3 bass nm="Violoncello" snm="Vc."
V:1
"^Moderato" z8 | z8 | z8 | z8 | z8 |!mf! a4 (c3 d | e2) A2 f4- | fe(ed) (dc)(cB) | %8
 (ce)(ea) (a^g)(gb) | (ba)(ab) (a2 g2 | f)(dfa d')(d=c'b) | (ag) (fe/)f/ (gdg).g | %12
 (c2 d2) (ed)(dc) | (d3 f) (e3 g) | f4- f(Bcd | e2) d2- d(cBA) | (^G3 A) (dedc) | %17
 Pd3 c/d/ c2!f! a2 | (c3 d e2) A2 | f(DFA d)(fed) | c(afd e)(Ggf) | (ed) (PcB/c/) d(Ad).d | %22
 (^G2 A2) (BA)(AG) | A(EAc B)(EBd) | (c3 e) (d2 Pc2 | B2)!mf! (ea) (a^g)(gb) | (ba)(ac') (b2 a2) | %27
 (^gf)(fe) (ed)(dc) | (cB)(B^A) B2 z2 | z8 | f4 (A3 B) | c2 F2 d4 | (dc)(cB) (BA)(A^G) | %33
 (Ac)(cf) (f^e)(e^g) | (^gf)(fa) (ag)(gb) | (b2 Pa2 ^g)(c^eg | c')(cba) (a4- | a2 ^a2 b)!f!(Bdf | %38
 b)(Bag) (fe) (Pdc/d/) | e2 B4 ^A2 | B2!p!"_cresc." f6- | f6- ff |!mf! (e2 d2 c)(gfe) | %43
 (d2 Pc2 B2 (B)e) |"_cresc." (e^d)(df) (fe)(eg) | (gf)(fa) (ag)(gb) | (a2 g2 f)(=c'ba) | %47
 (g2 f2 g4) | f4 e4- | e(Ad=c B)!f!(GBd | g)(G=fe) (d=c) (PBA/)B/ | =c2 z2 z4 | z8 | z8 | %54
 z4!mf! d4 | (F3 G) A2 z2 | G4 (C3 D) | (ED)(DC) D2!mp! a2- |!<(! a8- | a3!<)!!mf! b e2 a2 | %60
 (c3 d) e2 A2 | f4- fe(ed) | (dc)(cB) (ce)(ea) | (a^g)(gb) (ba)(ab) | (a2 Pg2 f)dfa- | %65
 a(g/f/) (d'b) a4- | a(d.g)g (gf)(fe) | %67
 (ed)[Q:1/4=100] z[Q:1/4=90]"_rit." d[Q:1/4=70] (d2[Q:1/4=50][Q:1/4=50] Pc3/2B/4c/4 | %68
[Q:1/4=40] !fermata!d4) z4 |] %69
V:2
!mf! d4 (F3 G) | A2 D2 B4- | BA(AG) (GF)(FE) | (FA)(Ad) (dc)(ce) | (ed)(df) (e2 d2 | %5
 c)!mp!(A"_cresc."ce a)(Agf) | (ed) (cB/)c/ (dAd).d | ^G2!mf! A2 (BA)(AG) | (AE)(Ac) B(EBd) | %9
 c4- c(ABc | d2) z2 d4 | (c2 d4) d2 | (ef)(fg) a2 A2 |!mf!!<(! A8-!<)! | A2 d2 ^G4- | %15
 GA(F^G) E2 f2- | fd e2 (^G3 A) | B4 E2 z2 | z2 A2 C3 C | D2 A,2 A2 z2 | A4 C3 D | E2 A,2 F4- | %22
 FE(ED) (DC)(CB,) | (CE)(EA) (A^G)(GB) | (BA)(Ac) (B2 PA2 | ^G2) (Ac) B(EBd) | c3 e (d2 c2) | %27
 (B2 A2) B2 F2 | (D2 E2 F2)!mf! d2 | (^E3 F) ^G2 C2 | (A^G)(GF) F4 | ^E2 Fc- cB(B^g) | %32
 (^e3 ^g) (gf)(fe) | f2 z2 z4 | z2 (cf) (f^e)(e^g) | (^g2 Pf2 ^e2) z2 | z8 | z4 B4 | %38
 (D3 E) F2 B,2 | G4- GF(FE) | (ED)(DC) (DF)(FB) | (B^A)(Ac) (cB)(Bd) | c2 B2- B^A B2- | %43
 B2 P^A2 B4- |"_cresc." B6 (Be) | (e^d)(df) (fe)(eg) | f2 e2- e(^def) | (e2 ^d2 e)B =c2- | %48
 c2 B2- BE(AG) | F2 (A2 G2) D2- | D2 (G2 ^F2 G2) | z!mf! G=cc F2 A2 | D2 F2 (G3 B) | %53
 B(DA=c) (B3 d) | (d=c)(cB) A2 z2 | z4 z2!mf! D2 | B4- BA(AG) | (GF)(FE) (FA)(Ad) | %58
 (dc)(ce) (ed)(df) | (e2 d2 c)!f!(A,CE | A)(A,GF) (ED) (PCB,/C/) | D2 d2 ^G3 A | %62
 B2 ^G2 A2!mp! e2- |"_cresc." e8- | e!mf!(cde d2) z2 | d3 d (cB/A/) ff | d6 c2 | %67
 (aA)(BG) (F2 PE3/2D/4E/4 | !fermata!F4) z4 |] %69
V:3
 z!mf! (D,F,A, D)(D,=CB,) | (A,G,) (F,E,/F,/) (G,F,E,D,) | C,4- C,(A,,B,,C, | D,2) F,2 (A,2 G,2) | %4
 (F,2 D,2) (^G,E,)(F,G,) | A,2 A,,2 z4 | z4 z2 (D,2 | E,2 F,2 ^G,2 E,2) | A,,2 z2 z4 | z8 | %10
 D,4 (F,,3 G,,) | A,,2 F,,2 B,,4 | (B,,A,,)(A,,G,,) (G,,F,,)(F,,E,,) | %13
 (F,,A,,)(A,,D,) (D,C,)(C,E,) | (E,C,)(D,F,) (E,2 D,2) | (C,3 B,,) (C,2 D,2) | (E,3 C) (B,3 A,) | %17
 (A,^G,/F,/) (G,2 A,2) z2 | z8 | D4 (F,3 G, | A,2) D,2 A,,(F,E,D,) | (G,2 A,2) D,2 B,,2 | %22
 (E,2 F,2) (D,2 E,2) | A,,2 C,A,, E,4- | E,4 z ^G,A,A,, | E,(ECA,) E,4- | E,4 z ^G,A,A,, | %27
 (E,2 F,2 ^G,2 ^A,2 | B,2 C2 D2) B,2- | B,(A,^G,F,) ^E,(C,^D,E, | F,)(F,,A,,C, F,)F,,(E,D,) | %31
 (C,B,,) (^A,,^G,,/A,,/) (B,,F,,) B,,2 | C,4 C4 | F,2 (A,F,) (C2 B,2) | (A,C)(A,F,) C4 | %35
 z ^E,F,F,, C,2 (B,2 | A,2 ^G,2 F,)!f!((F,,A,,C, | F,))(F,,E,D,) D,2 B,,2 | z8 | z2 (E,2 D,2 C,2 | %40
 B,,2 ^A,,2 B,,2) (D,2 | C,2) (E,2 D,2) B,,2 | z ^A,(B,B,,) E,2 (D,E,) | F,2 F,,2 B,,(B,G,E,) | %44
 F,2 A,2 (G,3 E,) |!mp!!<(! B,8- | B,!<)!!mf!(^D,E,G,) A,,(A,G,A,) | (B,A,B,)(B,, E,G,A,)_E, | %48
 (D,F,G,)B,, =C,2 =C2 | D,2 F,2 G,4 | (B,,3 =C,) D,2 G,,2 |!f! E,4- E,D,(D,=C,) | %52
 (=C,B,,)(B,,A,,) (B,,D,)(D,G,) | (G,F,)(F,A,) (A,G,)(G,B,) | (A,2 G,2 F,)!mf!(D,F,A, | %55
 D)(D,=CB,) (A,G,) (PF,E,/F,/) | (G,D,)G,G, A,,4- | A,,2 A,,2 D,2 (F,D,) | (A,2 G,2 F,2 D,2) | %59
 (C,E,F,^G, A,2) z2 | z8 | D,4 (E,,3 F,,) | ^G,,2 E,,2 A,,3 C | B,!mf!(E,B,D) C4- | C(A,B,C D4) | %65
 (F,3 G,) A,2 D,2 | (B,4 A,2 G,2 | F,2) (G,B,) A,2 A,,2 | !fermata!D,4 z4 |] %69

